X:290
T:Fisherman's Lilt
R:hornpipe
M:4/4
L:1/8
K:D
(3ABc|dAFA GBAG|(3FED (3FED GBAG|FAFA GBGB|FAFA E2 (3ABc|
dAFA GBAG|(3FED (3FED GBAG|FAdf gecd|(3efe dc d2:|
f|eAA2 efge|fdde fdgf|eAA2 efgf|(3efe (3dcB A2dc|
BGG2 BcdB|AGFG ABcB|Acef gecd|(3efe dc d3:|
